!! 00000] TT[WS
!!!OTL: Xiao ganhui
!!!ARE: Asia, China, Shanxi Taiyuan
!! Ethnic Group: Han
!! WI, 241
!!!SCT: J0287
!!!YEM: Copyright 1995, estate of Helmut Schaffrath.
**kern
*ICvox
*Ivox
*M2/4
*k[b-]
*F:
{8r
8a
8cc
8ff
=1
8.dd
16cc
16a
16cc
[8g
=2
8g]
8a
8a
8ff
=3
8.a
16g
8f
8f}
=4
{8r
4cc
8cc
=5
8cc
8f
8g
8cc
=6
8f
8a
16g
16a
16g
16f
=7
2c}
=8
{8g
8g
4cc
=9
8b-
8b-
4cc
=10
8.f
16a
8a
8a
=11
8g
8a
8cc
8cc}
=12
{8r
8ff
8b-
8a
=13
8.g
16a
8cc
8f
=14
8dd
8cc
8.b-
16a
=15
8g
8f
4c}
==
!!!AGN: Xiaodiao. Fengsu
!!!ONB: ESAC (Essen Associative Code) Database: CHINA
!!!AMT: simple duple
!!!AIN: vox
!!!EED: Helmut Schaffrath
!!!EEV: 1.0
*-
!!!ONB: Tied note syntax fixed by Craig Sapp, 2004/05/03/
